assets/icons/lib/create-challenge.svg

<svg class="Icon Icon-create-challenge" width="24" height="24" viewBox="0 0 24 24" fill="none" xmlns="http://www.w3.org/2000/svg">
<path d="M3.29977 3.30029C2.90008 3.70067 2.90008 4.34983 3.29977 4.75021L10.5528 12.0159L6.95011 15.6249L5.50296 14.1752C5.10327 13.7748 4.45525 13.7748 4.05556 14.1752C3.65587 14.5756 3.65587 15.2247 4.05556 15.6251L5.50271 17.0748L3.33149 19.2498C2.9318 19.6502 2.9318 20.2993 3.33149 20.6997C3.73118 21.1001 4.3792 21.1001 4.77889 20.6997L6.95011 18.5247L8.39775 19.9749C8.79743 20.3753 9.44546 20.3753 9.84514 19.9749C10.2448 19.5745 10.2448 18.9253 9.84514 18.5249L8.3975 17.0748L12.0002 13.4658L15.6025 17.0744L14.1553 18.5241C13.7556 18.9245 13.7556 19.5737 14.1553 19.974C14.555 20.3744 15.203 20.3744 15.6027 19.974L17.0499 18.5243L19.2211 20.6993C19.6208 21.0997 20.2688 21.0997 20.6685 20.6993C21.0682 20.299 21.0682 19.6498 20.6685 19.2494L18.4973 17.0744L19.9449 15.6243C20.3446 15.2239 20.3446 14.5747 19.9449 14.1743C19.5452 13.774 18.8972 13.774 18.4975 14.1743L17.0499 15.6245L13.4476 12.0159L20.7002 4.75058C21.0999 4.35019 21.0999 3.70104 20.7002 3.30066C20.3005 2.90027 19.6525 2.90027 19.2528 3.30066L12.0002 10.566L4.74716 3.30029C4.34747 2.8999 3.69945 2.8999 3.29977 3.30029Z" fill="currentColor"/>
</svg>

<svg class="Icon Icon-create-challenge" viewBox="0 0 24 24" fill="none" xmlns="http://www.w3.org/2000/svg"><path d="M3.3 3.3c-.4.4-.4 1.05 0 1.45l7.253 7.266-3.603 3.609-1.447-1.45c-.4-.4-1.048-.4-1.447 0-.4.4-.4 1.05 0 1.45l1.447 1.45L3.33 19.25c-.4.4-.4 1.05 0 1.45.4.4 1.048.4 1.448 0l2.171-2.175 1.448 1.45c.4.4 1.047.4 1.447 0 .4-.4.4-1.05 0-1.45l-1.447-1.45L12 13.465l3.602 3.61-1.447 1.45c-.4.4-.4 1.049 0 1.449.4.4 1.048.4 1.448 0l1.447-1.45L19.22 20.7c.4.4 1.048.4 1.448 0 .4-.4.4-1.05 0-1.45l-2.172-2.175 1.448-1.45c.4-.4.4-1.05 0-1.45-.4-.4-1.048-.4-1.448 0l-1.447 1.45-3.602-3.608L20.7 4.75c.4-.4.4-1.05 0-1.45-.4-.4-1.047-.4-1.447 0L12 10.566 4.747 3.3c-.4-.4-1.048-.4-1.447 0Z" fill="currentColor"/></svg>
